icons/Business/creative-commons-by-fill.svg

<svg viewBox="0 0 24 24" xmlns="http://www.w3.org/2000/svg"><path d="M12 2C17.5228 2 22 6.47715 22 12C22 17.5228 17.5228 22 12 22C6.47715 22 2 17.5228 2 12C2 6.47715 6.47715 2 12 2ZM14 10H10C9.44772 10 9 10.4477 9 11V15H10.5V19H13.5V15H15V11C15 10.4477 14.5523 10 14 10ZM12 5C10.8954 5 10 5.89543 10 7C10 8.10457 10.8954 9 12 9C13.1046 9 14 8.10457 14 7C14 5.89543 13.1046 5 12 5Z"/></svg>

<svg xmlns="http://www.w3.org/2000/svg" viewBox="0 0 24 24">
    <g>
        <path fill="none" d="M0 0h24v24H0z"/>
        <path d="M12 2c5.523 0 10 4.477 10 10s-4.477 10-10 10S2 17.523 2 12 6.477 2 12 2zm2 8h-4a1 1 0 0 0-.993.883L9 11v4h1.5v4h3v-4H15v-4a1 1 0 0 0-.883-.993L14 10zm-2-5a2 2 0 1 0 0 4 2 2 0 0 0 0-4z"/>
    </g>
</svg>
